MA3T1/127/aimg/tablet.svg

<svg clip-rule="evenodd" fill-rule="evenodd" stroke-linejoin="round" stroke-miterlimit="2" viewBox="0 0 278 191" xmlns="http://www.w3.org/2000/svg"><g fill-rule="nonzero"><path d="m0-44.025c1.023-.046 2.05-.094 3.073-.051 5.289.222 6.888 4.117 8.494 8.383 1.872 4.975 4.252 9.779 5.533 14.962.619 2.507 1.591 6.464-.462 8.62-1.477 1.551-5.753 2.05-7.775 2.619-2.607.733-5.213 1.476-7.824 2.201-9.542 2.649-19.19 5.151-29.053 6.254-2.422.271-5.922 1.131-8.071-.146-1.333-.792-2.27-2.368-3.029-3.674-1.758-3.022-2.788-6.505-3.694-9.863-1.607-5.964-2.459-12.092-3.974-18.073-.011-.045-.034-.076-.054-.111.971-7.136 41.896-10.903 46.836-11.121" fill="#ec008c" transform="matrix(4.16667 0 0 4.16667 199.6701 188.0558)"/><path d="m0-39.419c1.467-.047 2.665-.054 4.128.335 4.083 1.085 4.88 4.486 6.226 7.973 1.743 4.517 3.873 8.955 4.9 13.713.808 3.742.895 6.582-3.109 8.213-3.996 1.627-8.643 2.451-12.803 3.586-8.456 2.306-17.016 4.357-25.765 5.124-2.138.188-4.176.529-5.932-.838-1.041-.81-1.77-2.251-2.389-3.402-1.497-2.774-2.388-5.962-3.175-8.999-1.366-5.262-2.124-10.654-3.44-15.925-.013-.048-.035-.083-.057-.119.864-6.514 36.888-9.513 41.416-9.661" fill="#82838f" transform="matrix(4.16667 0 0 4.16667 199.7701 176.7558)"/><path d="m0-2.799c.128.207.185.469.251.7.147.529.425 1.173.417 1.72-.009.549-.774.972-1.197.519-.199-.212-.279-.743-.368-1.009-.222-.653-.41-1.316-.622-1.975.482-.293 1.152-.548 1.519.045" fill="#be1e2d" transform="matrix(4.16667 0 0 4.16667 30.2701 115.0558)"/><path d="m0 25.957c1.484-3.055 3.017-6.084 4.578-9.099 1.566-3.023 3.153-6.033 4.73-9.049 1.558-2.982 3.055-5.995 4.781-8.886.845-1.417 1.722-2.815 2.594-4.215.288-.462.563-.946.848-1.424-8.217.537-39.069 3.553-39.869 9.577.022.036.044.071.057.118 1.315 5.271 2.074 10.663 3.44 15.925.787 3.037 1.678 6.226 3.175 9 .619 1.151 1.348 2.591 2.389 3.402 1.755 1.367 3.794 1.026 5.932.838 1.525-.134 3.043-.319 4.558-.525.954-1.876 1.867-3.771 2.787-5.662" fill="#727172" transform="matrix(4.16667 0 0 4.16667 120.2701 40.8558)"/><path d="m0-13.886c-1.439-.705-3.026-1.058-4.614-1.195-3.459-.297-6.95.29-10.371.736-4.777.624-9.524 1.461-14.247 2.403-3.722.742-7.276 2.058-10.897 3.149.004.032-.003.065-.042.083-.714.346-1.499.5-2.226.811.354.153.711.297 1.08.409 1.705.52 3.496.644 5.237.994 1.889.38 3.809.576 5.731.658 3.825.166 7.649-.099 11.472-.195 1.926-.049 3.855-.055 5.78.054 1.809.102 3.608.329 5.394.636 3.396.586 6.713 1.534 9.904 2.834 1.536.625 3.074 1.292 4.555 2.035 1.063.534 2.081 1.173 2.966 1.966-.8-2.371-1.767-4.69-2.712-7.009-.948-1.751-1.986-3.477-3.158-5.087-1.006-1.384-2.313-2.527-3.852-3.282" fill="#fff" opacity=".15" transform="matrix(4.16667 0 0 4.16667 217.81628041 80.54466351)"/><g fill="#231f20"><path d="m0-19.015c-3.771-7.904 41.429-12.078 46.636-12.308 1.024-.046 2.051-.094 3.074-.051 5.288.222 6.887 4.117 8.494 8.382 1.871 4.975 4.252 9.78 5.532 14.962.62 2.508 1.592 6.465-.462 8.621-1.476 1.55-5.752 2.051-7.774 2.619-2.608.734-5.214 1.476-7.824 2.2-9.543 2.65-19.191 5.151-29.053 6.255-2.423.271-5.922 1.131-8.072-.146-1.332-.792-2.27-2.369-3.029-3.676-1.758-3.021-2.788-6.503-3.693-9.862-1.608-5.964-2.461-12.091-3.974-18.072-.148-.576-1.037-.332-.892.246 1.774 7.094 2.642 14.387 4.884 21.373 1.216 3.791 3.294 10.204 7.67 11.503 2.367.704 6.41-.478 8.882-.805 2.411-.319 4.811-.721 7.201-1.173 6.54-1.235 12.987-2.914 19.397-4.689 2.903-.803 5.798-1.632 8.698-2.449 1.998-.563 5.255-.878 6.965-1.946 1.596-.998 2.236-2.389 2.462-4.233.748-6.119-3-12.946-5.23-18.415-2.032-4.983-3.12-10.943-9.548-11.391-9.755-.68-20.391 1.379-29.951 3.053-2.902.509-24.761 3.583-20.827 10.256.167.281.572.035.434-.254" transform="matrix(4.16667 0 0 4.16667 5.3701 135.1558)"/><path d="m0-17.844c-3.358-7.278 36.463-10.605 41.238-10.761 1.466-.048 2.664-.055 4.127.334 4.083 1.086 4.881 4.487 6.228 7.973 1.743 4.517 3.872 8.956 4.899 13.713.807 3.742.895 6.582-3.11 8.213-3.995 1.627-8.643 2.451-12.803 3.585-8.456 2.307-17.014 4.357-25.765 5.126-2.137.188-4.176.53-5.931-.838-1.042-.811-1.77-2.252-2.39-3.402-1.496-2.774-2.387-5.962-3.175-9-1.365-5.263-2.124-10.654-3.44-15.924-.135-.545-.974-.315-.84.23 1.573 6.384 2.356 12.937 4.319 19.228 1.101 3.527 2.941 9.456 6.969 10.755 1.712.553 5.276-.362 7.126-.582 2.072-.246 4.135-.566 6.189-.928 5.486-.968 10.896-2.305 16.272-3.76 2.846-.772 5.681-1.581 8.519-2.384 2.086-.589 5.02-.798 6.85-1.918 1.377-.84 2.004-1.996 2.273-3.579.918-5.402-2.494-11.724-4.445-16.546-1.722-4.256-2.65-10.093-8.061-10.94-3.44-.536-7.386.147-10.81.444-5.499.478-10.992 1.138-16.433 2.069-2.676.458-21.749 3.028-18.215 9.13.155.269.535.034.409-.238" transform="matrix(4.16667 0 0 4.16667 27.8701 131.7558)"/><path d="m0-2.797c.484-.311 1.205-.617 1.587.003.129.207.186.469.251.7.148.529.426 1.173.417 1.72-.008.549-.774.971-1.197.519-.198-.213-.279-.744-.367-1.009-.243-.716-.444-1.444-.681-2.162-.141-.426-.821-.241-.675.185.282.819.607 1.622.873 2.447.142.44.201 1.018.651 1.266.734.407 1.907.081 2.058-.795.087-.508-.126-1.045-.261-1.524-.153-.542-.259-1.158-.555-1.647-.592-.982-1.565-.722-2.378-.177-.292.195-.022.666.277.474" transform="matrix(4.16667 0 0 4.16667 23.6701 115.0558)"/><path d="m1.888-6.706c.877 2.278.821 4.513.482 6.895-.045.315-.53.209-.482-.106.356-2.301.512-4.476-.165-6.738-.032-.106.125-.152.165-.051" transform="matrix(-3.50814 2.24813 2.24813 3.50814 57.5701 173.7558)"/><path d="m0 4.756c-.222-.686-.614-1.282-.783-1.994-.208-.868-.214-1.739-.089-2.619.042-.301-.391-.443-.47-.13-.385 1.521-.232 3.811 1.027 4.926.132.117.376.007.315-.183" transform="matrix(4.16667 0 0 4.16667 14.6701 45.4558)"/></g></g></svg>

<?xml version="1.0" encoding="UTF-8" standalone="no"?>
<!DOCTYPE svg PUBLIC "-//W3C//DTD SVG 1.1//EN" "http://www.w3.org/Graphics/SVG/1.1/DTD/svg11.dtd">
<svg width="100%" height="100%" viewBox="0 0 278 191" version="1.1" xmlns="http://www.w3.org/2000/svg" xmlns:xlink="http://www.w3.org/1999/xlink" xml:space="preserve" xmlns:serif="http://www.serif.com/" style="fill-rule:evenodd;clip-rule:evenodd;stroke-linejoin:round;stroke-miterlimit:2;">
    <g transform="matrix(1,0,0,1,-95,-128)">
        <g transform="matrix(1,0,0,1,-16560.5,-12215.3)">
            <g transform="matrix(1,0,0,1,95.9701,-43.3442)">
                <g transform="matrix(4.16667,0,0,4.16667,16759.2,12574.7)">
                    <g>
                        <path d="M0,-44.025C1.023,-44.071 2.05,-44.119 3.073,-44.076C8.362,-43.854 9.961,-39.959 11.567,-35.693C13.439,-30.718 15.819,-25.914 17.1,-20.731C17.719,-18.224 18.691,-14.267 16.638,-12.111C15.161,-10.56 10.885,-10.061 8.863,-9.492C6.256,-8.759 3.65,-8.016 1.039,-7.291C-8.503,-4.642 -18.151,-2.14 -28.014,-1.037C-30.436,-0.766 -33.936,0.094 -36.085,-1.183C-37.418,-1.975 -38.355,-3.551 -39.114,-4.857C-40.872,-7.879 -41.902,-11.362 -42.808,-14.72C-44.415,-20.684 -45.267,-26.812 -46.782,-32.793C-46.793,-32.838 -46.816,-32.869 -46.836,-32.904C-45.865,-40.04 -4.94,-43.807 0,-44.025" style="fill:rgb(236,0,140);fill-rule:nonzero;"/>
                    </g>
                </g>
                <g transform="matrix(4.16667,0,0,4.16667,16759.3,12563.4)">
                    <g>
                        <path d="M0,-39.419C1.467,-39.466 2.665,-39.473 4.128,-39.084C8.211,-37.999 9.008,-34.598 10.354,-31.111C12.097,-26.594 14.227,-22.156 15.254,-17.398C16.062,-13.656 16.149,-10.816 12.145,-9.185C8.149,-7.558 3.502,-6.734 -0.658,-5.599C-9.114,-3.293 -17.674,-1.242 -26.423,-0.475C-28.561,-0.287 -30.599,0.054 -32.355,-1.313C-33.396,-2.123 -34.125,-3.564 -34.744,-4.715C-36.241,-7.489 -37.132,-10.677 -37.919,-13.714C-39.285,-18.976 -40.043,-24.368 -41.359,-29.639C-41.372,-29.687 -41.394,-29.722 -41.416,-29.758C-40.552,-36.272 -4.528,-39.271 0,-39.419" style="fill:rgb(130,131,143);fill-rule:nonzero;"/>
                    </g>
                </g>
                <g transform="matrix(4.16667,0,0,4.16667,16589.8,12501.7)">
                    <g>
                        <path d="M0,-2.799C0.128,-2.592 0.185,-2.33 0.251,-2.099C0.398,-1.57 0.676,-0.926 0.668,-0.379C0.659,0.17 -0.106,0.593 -0.529,0.14C-0.728,-0.072 -0.808,-0.603 -0.897,-0.869C-1.119,-1.522 -1.307,-2.185 -1.519,-2.844C-1.037,-3.137 -0.367,-3.392 0,-2.799" style="fill:rgb(190,30,45);fill-rule:nonzero;"/>
                    </g>
                </g>
                <g transform="matrix(4.16667,0,0,4.16667,16679.8,12427.5)">
                    <g>
                        <path d="M0,25.957C1.484,22.902 3.017,19.873 4.578,16.858C6.144,13.835 7.731,10.825 9.308,7.809C10.866,4.827 12.363,1.814 14.089,-1.077C14.934,-2.494 15.811,-3.892 16.683,-5.292C16.971,-5.754 17.246,-6.238 17.531,-6.716C9.314,-6.179 -21.538,-3.163 -22.338,2.861C-22.316,2.897 -22.294,2.932 -22.281,2.979C-20.966,8.25 -20.207,13.642 -18.841,18.904C-18.054,21.941 -17.163,25.13 -15.666,27.904C-15.047,29.055 -14.318,30.495 -13.277,31.306C-11.522,32.673 -9.483,32.332 -7.345,32.144C-5.82,32.01 -4.302,31.825 -2.787,31.619C-1.833,29.743 -0.92,27.848 0,25.957" style="fill:rgb(114,113,114);fill-rule:nonzero;"/>
                    </g>
                </g>
                <g transform="matrix(4.16667,0,0,4.16667,16343.5,10762.8)">
                    <g opacity="0.15">
                        <g transform="matrix(1,0,0,1,104.123,409.053)">
                            <path d="M0,-13.886C-1.439,-14.591 -3.026,-14.944 -4.614,-15.081C-8.073,-15.378 -11.564,-14.791 -14.985,-14.345C-19.762,-13.721 -24.509,-12.884 -29.232,-11.942C-32.954,-11.2 -36.508,-9.884 -40.129,-8.793C-40.125,-8.761 -40.132,-8.728 -40.171,-8.71C-40.885,-8.364 -41.67,-8.21 -42.397,-7.899C-42.043,-7.746 -41.686,-7.602 -41.317,-7.49C-39.612,-6.97 -37.821,-6.846 -36.08,-6.496C-34.191,-6.116 -32.271,-5.92 -30.349,-5.838C-26.524,-5.672 -22.7,-5.937 -18.877,-6.033C-16.951,-6.082 -15.022,-6.088 -13.097,-5.979C-11.288,-5.877 -9.489,-5.65 -7.703,-5.343C-4.307,-4.757 -0.99,-3.809 2.201,-2.509C3.737,-1.884 5.275,-1.217 6.756,-0.474C7.819,0.06 8.837,0.699 9.722,1.492C8.922,-0.879 7.955,-3.198 7.01,-5.517C6.062,-7.268 5.024,-8.994 3.852,-10.604C2.846,-11.988 1.539,-13.131 0,-13.886" style="fill:white;fill-rule:nonzero;"/>
                        </g>
                    </g>
                </g>
                <g transform="matrix(4.16667,0,0,4.16667,16564.9,12521.8)">
                    <g>
                        <path d="M0,-19.015C-3.771,-26.919 41.429,-31.093 46.636,-31.323C47.66,-31.369 48.687,-31.417 49.71,-31.374C54.998,-31.152 56.597,-27.257 58.204,-22.992C60.075,-18.017 62.456,-13.212 63.736,-8.03C64.356,-5.522 65.328,-1.565 63.274,0.591C61.798,2.141 57.522,2.642 55.5,3.21C52.892,3.944 50.286,4.686 47.676,5.41C38.133,8.06 28.485,10.561 18.623,11.665C16.2,11.936 12.701,12.796 10.551,11.519C9.219,10.727 8.281,9.15 7.522,7.843C5.764,4.822 4.734,1.34 3.829,-2.019C2.221,-7.983 1.368,-14.11 -0.145,-20.091C-0.293,-20.667 -1.182,-20.423 -1.037,-19.845C0.737,-12.751 1.605,-5.458 3.847,1.528C5.063,5.319 7.141,11.732 11.517,13.031C13.884,13.735 17.927,12.553 20.399,12.226C22.81,11.907 25.21,11.505 27.6,11.053C34.14,9.818 40.587,8.139 46.997,6.364C49.9,5.561 52.795,4.732 55.695,3.915C57.693,3.352 60.95,3.037 62.66,1.969C64.256,0.971 64.896,-0.42 65.122,-2.264C65.87,-8.383 62.122,-15.21 59.892,-20.679C57.86,-25.662 56.772,-31.622 50.344,-32.07C40.589,-32.75 29.953,-30.691 20.393,-29.017C17.491,-28.508 -4.368,-25.434 -0.434,-18.761C-0.267,-18.48 0.138,-18.726 0,-19.015" style="fill:rgb(35,31,32);fill-rule:nonzero;"/>
                    </g>
                </g>
                <g transform="matrix(4.16667,0,0,4.16667,16587.4,12518.4)">
                    <g>
                        <path d="M0,-17.844C-3.358,-25.122 36.463,-28.449 41.238,-28.605C42.704,-28.653 43.902,-28.66 45.365,-28.271C49.448,-27.185 50.246,-23.784 51.593,-20.298C53.336,-15.781 55.465,-11.342 56.492,-6.585C57.299,-2.843 57.387,-0.003 53.382,1.628C49.387,3.255 44.739,4.079 40.579,5.213C32.123,7.52 23.565,9.57 14.814,10.339C12.677,10.527 10.638,10.869 8.883,9.501C7.841,8.69 7.113,7.249 6.493,6.099C4.997,3.325 4.106,0.137 3.318,-2.901C1.953,-8.164 1.194,-13.555 -0.122,-18.825C-0.257,-19.37 -1.096,-19.14 -0.962,-18.595C0.611,-12.211 1.394,-5.658 3.357,0.633C4.458,4.16 6.298,10.089 10.326,11.388C12.038,11.941 15.602,11.026 17.452,10.806C19.524,10.56 21.587,10.24 23.641,9.878C29.127,8.91 34.537,7.573 39.913,6.118C42.759,5.346 45.594,4.537 48.432,3.734C50.518,3.145 53.452,2.936 55.282,1.816C56.659,0.976 57.286,-0.18 57.555,-1.763C58.473,-7.165 55.061,-13.487 53.11,-18.309C51.388,-22.565 50.46,-28.402 45.049,-29.249C41.609,-29.785 37.663,-29.102 34.239,-28.805C28.74,-28.327 23.247,-27.667 17.806,-26.736C15.13,-26.278 -3.943,-23.708 -0.409,-17.606C-0.254,-17.337 0.126,-17.572 0,-17.844" style="fill:rgb(35,31,32);fill-rule:nonzero;"/>
                    </g>
                </g>
                <g transform="matrix(4.16667,0,0,4.16667,16583.2,12501.7)">
                    <g>
                        <path d="M0,-2.797C0.484,-3.108 1.205,-3.414 1.587,-2.794C1.716,-2.587 1.773,-2.325 1.838,-2.094C1.986,-1.565 2.264,-0.921 2.255,-0.374C2.247,0.175 1.481,0.597 1.058,0.145C0.86,-0.068 0.779,-0.599 0.691,-0.864C0.448,-1.58 0.247,-2.308 0.01,-3.026C-0.131,-3.452 -0.811,-3.267 -0.665,-2.841C-0.383,-2.022 -0.058,-1.219 0.208,-0.394C0.35,0.046 0.409,0.624 0.859,0.872C1.593,1.279 2.766,0.953 2.917,0.077C3.004,-0.431 2.791,-0.968 2.656,-1.447C2.503,-1.989 2.397,-2.605 2.101,-3.094C1.509,-4.076 0.536,-3.816 -0.277,-3.271C-0.569,-3.076 -0.299,-2.605 0,-2.797" style="fill:rgb(35,31,32);fill-rule:nonzero;"/>
                    </g>
                </g>
                <g transform="matrix(-3.50814,2.24813,2.24813,3.50814,16617.1,12560.4)">
                    <g>
                        <path d="M1.888,-6.706C2.765,-4.428 2.709,-2.193 2.37,0.189C2.325,0.504 1.84,0.398 1.888,0.083C2.244,-2.218 2.4,-4.393 1.723,-6.655C1.691,-6.761 1.848,-6.807 1.888,-6.706" style="fill:rgb(35,31,32);fill-rule:nonzero;"/>
                    </g>
                </g>
                <g transform="matrix(4.16667,0,0,4.16667,16574.2,12432.1)">
                    <g>
                        <path d="M0,4.756C-0.222,4.07 -0.614,3.474 -0.783,2.762C-0.991,1.894 -0.997,1.023 -0.872,0.143C-0.83,-0.158 -1.263,-0.3 -1.342,0.013C-1.727,1.534 -1.574,3.824 -0.315,4.939C-0.183,5.056 0.061,4.946 0,4.756" style="fill:rgb(35,31,32);fill-rule:nonzero;"/>
                    </g>
                </g>
            </g>
        </g>
    </g>
</svg>
